X:1
T:Title
%%score { ( 1 3 ) | ( 2 4 ) }
L:1/8
Q:1/4=100
M:4/4
K:Bb
V:1 treble nm="Grand Piano"
V:3 treble 
V:2 bass 
V:4 bass 
V:1
 [DF]3 [_D=E] [=DF][DB][Fd][FB] | [FA]4 G2 z2 | F3 F FAGF | F4 z4 | %4
w: Pemberton~Pierce * * * * *||||
 [DF]3 [_D=E] [=DF][DB][Fd][FB] | [FA]4 [EG]2 z2 | [=EG]3 [EG] [Ec][EB][EA][EG] | F6 z2 | %8
w: ||||
 c3 c BAGF | [Dd]4 [DB]2 z2 | [^Fd]3 A cBAG | A8 | [DB]3 [FA] [FB][Fc][Fd][_Af] | [Gf]4 [Ge]2 z2 | %14
w: ||||||
 d3 d ecAF | [DB]6 z2 |] %16
w: ||
V:2
 [B,,B,]3 [B,,B,] [B,,B,][B,,B,][B,,B,][D,B,] | [E,B,]4 [E,B,E]2 z2 | %2
 [F,A,C]3 [F,B,D] [F,CE][F,CE][F,A,E][F,A,E] | z4[K:treble] B2 z2 | %4
 [B,,B,]2 [B,,B,][B,,B,] [B,,B,]2 [B,,B,][D,B,] | [E,B,]4 [E,B,]2 z2 | %6
 [C,C]3 [C,C] [C,G,][C,G,][C,C][C,B,] | [F,A,]6 z2 | [F,A,E]3 [F,A,E] [F,CE][F,CE][F,A,E][F,A,E] | %9
 [B,,B,]4 [B,,B,]2 z2 | [D,A,]3 [D,^F,D] [G,D][G,D][E,G,_D][E,G,D] | [D,^F,D]4 [C,=F,]4 | %12
 [B,,F,]3 [E,C] [D,B,][C,A,][B,,B,][D,B,] | [E,B,]4 [E,B,]2 z2 | %14
 [F,B,F]3 [F,B,F] [F,A,F][F,A,F][F,CE][F,A,E] | [B,,B,]6 z2 |] %16
V:3
 x8 | x8 | x8 | [B,D]6 z2 | x8 | x8 | x8 | x8 | x8 | x8 | x8 | z4 E4 | x8 | x8 | x8 | x8 |] %16
V:4
 x8 | x8 | x8 | B,,6[K:treble] z2 | x8 | x8 | x8 | x8 | x8 | x8 | x8 | x8 | x8 | x8 | x8 | x8 |] %16

